X: 192
T: Incessament mon povre
N: Derived from Rue3013-Incessament_mon_povre.krn
C: Pierre de la Rue
%%abc-version 2.0
%%abcx-abcm2ps-target-version 5.9.1 (29 Sep 2008)
%%abc-creator hum2abc beta
%%abcx-conversion-date 2019/02/17 08:01:17
%%abc-edited-by Jesse Rodin
%%abc-edited-by Will Watson 13/11/2011
%%abcx-initial-encoding-date 2011/11/13/
%%humdrum-veritas 3726453197
%%humdrum-veritas-data 3135994468
%%linebreak <none>
%%barnumbers 0
L: 1/4
M: 2/1
Q: 1/2=120
V: 1 clef=treble
V: 2 clef=treble-8
V: 3 clef=treble-8
V: 4 clef=bass
V: 5 clef=bass
K: C
[V:1] G8 | 
[V:2] z8 | 
[V:3] z8 | 
[V:4] G,3A,B,2C2 | 
[V:5] z8 | 
[V:1] E3FD2D2 | 
[V:2] z8 | 
[V:3] z8 | 
[V:4] G,2C3B,B,2 | 
[V:5] z8 | 
[V:1] C2E3FGA | 
[V:2] g8 | 
[V:3] z8 | 
[V:4] C8 | 
[V:5] z8 | 
[V:1] B2c4B2 | 
[V:2] e3fd2d2 | 
[V:3] z8 | 
[V:4] z8 | 
[V:5] z8 | 
[V:1] c4c2A2- | 
[V:2] c3defe2- | 
[V:3] z8 | 
[V:4] A,8 | 
[V:5] z8 | 
[V:1] A2GFG4 | 
[V:2] edd4^c2 | 
[V:3] z8 | 
[V:4] F,3G,E,4 | 
[V:5] z8 | 
[V:1] F2A4d2- | 
[V:2] d8 | 
[V:3] z8 | 
[V:4] D,2F,G,A,_B,A,2- | 
[V:5] D,8 | 
[V:1] d2cBc4 | 
[V:2] z8 | 
[V:3] z8 | 
[V:4] A,G,G,4^F,2 | 
[V:5] B,,3C,A,,2A,,2 | 
[V:1] B4z4 | 
[V:2] d4G2B2- | 
[V:3] G8 | 
[V:4] G,8 | 
[V:5] G,,2G,,2C,2B,,2 | 
[V:1] z8 | 
[V:2] BAA4^G2 | 
[V:3] E3FD2D2 | 
[V:4] z8 | 
[V:5] C,2A,,2B,,4 | 
[V:1] z8 | 
[V:2] A2e2c2e2- | 
[V:3] C2C2F2E2 | 
[V:4] z8 | 
[V:5] A,,8- | 
[V:1] z8 | 
[V:2] edd4^c2 | 
[V:3] F2D2E4 | 
[V:4] A,4A,2A,2 | 
[V:5] A,,8 | 
[V:1] A4A2A2 | 
[V:2] d8- | 
[V:3] D8- | 
[V:4] F,3E,D,2A,2 | 
[V:5] z8 | 
[V:1] F3ED2A2- | 
[V:2] d8 | 
[V:3] D8 | 
[V:4] A,2F,2F,G,A,B, | 
[V:5] A,8 | 
[V:1] A2GFG4 | 
[V:2] z8 | 
[V:3] z8 | 
[V:4] C2D4^C2 | 
[V:5] F,3G,E,2E,2 | 
[V:1] F2A2_B2A2- | 
[V:2] z8 | 
[V:3] d8 | 
[V:4] D8- | 
[V:5] D,2D,2G,2F,2 | 
[V:1] A2G4^F2 | 
[V:2] z8 | 
[V:3] B3cA2A2 | 
[V:4] D8 | 
[V:5] G,2G,2D,4 | 
[V:1] G2B2c2d2- | 
[V:2] g3fe2d2 | 
[V:3] G2G2c2B2 | 
[V:4] z8 | 
[V:5] G,,4z4 | 
[V:1] d2c3BB2 | 
[V:2] e3cd4 | 
[V:3] c2c2G4 | 
[V:4] z4z2D2 | 
[V:5] z8 | 
[V:1] c8 | 
[V:2] c4z2e2 | 
[V:3] C4z4 | 
[V:4] E2E2C4 | 
[V:5] z8 | 
[V:1] z8 | 
[V:2] f2f2d2g2- | 
[V:3] z8 | 
[V:4] z2A,2B,2B,2 | 
[V:5] z8 | 
[V:1] z8 | 
[V:2] g2fed4 | 
[V:3] z8 | 
[V:4] G,2C4B,2 | 
[V:5] z4z2G,2 | 
[V:1] z8 | 
[V:2] c4z2d2 | 
[V:3] z8 | 
[V:4] CB,A,G,A,4 | 
[V:5] A,2A,2F,4 | 
[V:1] z2G2A2A2 | 
[V:2] e2e2c2f2- | 
[V:3] z4z2c2 | 
[V:4] G,4z4 | 
[V:5] z2E,2F,2F,2 | 
[V:1] F4z2G2 | 
[V:2] f2ede4 | 
[V:3] d2d2B4 | 
[V:4] z8 | 
[V:5] D,4G,2G,2- | 
[V:1] A2A2D2GA | 
[V:2] d8 | 
[V:3] z2A2B2B2 | 
[V:4] z8 | 
[V:5] G,2F,2G,3F, | 
[V:1] _BAGFG2E2 | 
[V:2] z8 | 
[V:3] G4c2c2- | 
[V:4] G,4G,2G,2 | 
[V:5] G,F,E,D,E,2E,2 | 
[V:1] F3GA_BA2- | 
[V:2] d4e2f2- | 
[V:3] c2B2c3B | 
[V:4] A,2D,2A,2F,2- | 
[V:5] D,4z4 | 
[V:1] AGG4^F2 | 
[V:2] fedcd4 | 
[V:3] cBAGA2A2 | 
[V:4] F,2G,2D,4 | 
[V:5] z4z2D,2 | 
[V:1] G8 | 
[V:2] z2d2d2e2 | 
[V:3] G4z4 | 
[V:4] z4z2_B,2 | 
[V:5] E,2F,2G,4 | 
[V:1] z8 | 
[V:2] fedcBAcB | 
[V:3] z4z2G2 | 
[V:4] A,2A,2F,2G,F, | 
[V:5] F,3E,D,2C,2- | 
[V:1] z8 | 
[V:2] AGG4^F2 | 
[V:3] A2B2c4 | 
[V:4] E,D,D,4C,2 | 
[V:5] C,B,,A,,G,,A,,2A,,2 | 
[V:1] z8 | 
[V:2] G4z2c2 | 
[V:3] B3AG2F2- | 
[V:4] D,2D,2G,2A,2 | 
[V:5] G,,4z4 | 
[V:1] z8 | 
[V:2] d2e2f4 | 
[V:3] FEDCD2D2 | 
[V:4] B,2C4B,2 | 
[V:5] z8 | 
[V:1] z2G2A2B2 | 
[V:2] e4d2g2- | 
[V:3] C4z4 | 
[V:4] C4z2G,2 | 
[V:5] z8 | 
[V:1] c4B3A | 
[V:2] gff2g3f | 
[V:3] z8 | 
[V:4] A,2A,2G,4 | 
[V:5] z8 | 
[V:1] G2F2G2E2- | 
[V:2] e2d2e2c2- | 
[V:3] z8 | 
[V:4] C,2D,2C,D,E,F, | 
[V:5] z8 | 
[V:1] E2DCD2D2 | 
[V:2] c2BAB2cB | 
[V:3] z8 | 
[V:4] G,2A,2G,2G,2 | 
[V:5] z8 | 
[V:1] C4z2G2 | 
[V:2] c2g2g2g2 | 
[V:3] z8 | 
[V:4] C,8 | 
[V:5] G,4G,2G,2 | 
[V:1] G2G2A2B2 | 
[V:2] e3fd4 | 
[V:3] z8 | 
[V:4] z8 | 
[V:5] G,2E,2F,2G,2 | 
[V:1] c4c3B | 
[V:2] c4z4 | 
[V:3] c4c2c2 | 
[V:4] z8 | 
[V:5] A,3G,F,E,A,2- | 
[V:1] A4G4 | 
[V:2] e4e2e2 | 
[V:3] c2A2B2c2 | 
[V:4] z4G,4 | 
[V:5] A,2G,F,E,4 | 
[V:1] z2d3cB2 | 
[V:2] f2f2f3e | 
[V:3] d3cBAd2- | 
[V:4] A,2A,2F,2D,E, | 
[V:5] D,8- | 
[V:1] A2G3^FF2 | 
[V:2] d4d4 | 
[V:3] d2cBA4 | 
[V:4] F,2G,2A,4 | 
[V:5] D,8 | 
[V:1] G2B3cd2 | 
[V:2] z2d2e2d2 | 
[V:3] G8- | 
[V:4] B,2G,A,B,4 | 
[V:5] z2G,2G,2G,2 | 
[V:1] G2c4B2 | 
[V:2] g4g3f | 
[V:3] G8 | 
[V:4] C2E2D4 | 
[V:5] E,3F,G,2G,2 | 
[V:1] c3BAGA2 | 
[V:2] e4z4 | 
[V:3] z2c2c2c2 | 
[V:4] C8 | 
[V:5] A,3G,F,E,F,2- | 
[V:1] A2A2GFGA | 
[V:2] z2e2e2e2 | 
[V:3] A3Bc2c2 | 
[V:4] z4G,4 | 
[V:5] F,2E,D,E,2E,2 | 
[V:1] _B2A3GFE | 
[V:2] f2f2f2d2- | 
[V:3] d3cBAB2- | 
[V:4] F,2F,2D,4 | 
[V:5] D,4D,4 | 
[V:1] D2G3^FF2 | 
[V:2] d2cBA2A2 | 
[V:3] B2AGA4 | 
[V:4] D4D2D2 | 
[V:5] D,8 | 
[V:1] G8 | 
[V:2] d4B3c | 
[V:3] G8- | 
[V:4] B,3CD2G,2- | 
[V:5] G,,8- | 
[V:1] G8- | 
[V:2] d2d3cBA | 
[V:3] G8- | 
[V:4] G,2F,E,D,4- | 
[V:5] G,,8- | 
[V:1] G8 |]  
[V:2] B8 |]  
[V:3] G8 |]  
[V:4] D,8 |]  
[V:5] G,,8 |]  



